svg/SJJB-OpenStreetMapIcons/shopping/butcher.svg

<?xml version="1.0" encoding="UTF-8" standalone="no"?>
<!-- Created with Inkscape (http://www.inkscape.org/) -->
<svg
   xmlns:dc="http://purl.org/dc/elements/1.1/"
   xmlns:cc="http://creativecommons.org/ns#"
   xmlns:rdf="http://www.w3.org/1999/02/22-rdf-syntax-ns#"
   xmlns:svg="http://www.w3.org/2000/svg"
   xmlns="http://www.w3.org/2000/svg"
   xmlns:sodipodi="http://sodipodi.sourceforge.net/DTD/sodipodi-0.dtd"
   xmlns:inkscape="http://www.inkscape.org/namespaces/inkscape"
   version="1.0"
   width="580"
   height="580"
   id="svg2"
   sodipodi:version="0.32"
   inkscape:version="0.46"
   sodipodi:docname="shopping_butcher.svg"
   inkscape:output_extension="org.inkscape.output.svg.inkscape">
  <metadata
     id="metadata10">
    <rdf:RDF>
      <cc:Work
         rdf:about="">
        <dc:format>image/svg+xml</dc:format>
        <dc:type
           rdf:resource="http://purl.org/dc/dcmitype/StillImage" />
        <cc:license
           rdf:resource="http://web.resource.org/cc/PublicDomain" />
        <dc:language>en</dc:language>
      </cc:Work>
    </rdf:RDF>
  </metadata>
  <sodipodi:namedview
     inkscape:window-height="1005"
     inkscape:window-width="1280"
     inkscape:pageshadow="2"
     inkscape:pageopacity="0.0"
     guidetolerance="10.0"
     gridtolerance="10.0"
     objecttolerance="10.0"
     borderopacity="1.0"
     bordercolor="#666666"
     pagecolor="#ffffff"
     id="base"
     showgrid="false"
     inkscape:zoom="1.0610557"
     inkscape:cx="474.33777"
     inkscape:cy="153.73396"
     inkscape:window-x="97"
     inkscape:window-y="69"
     inkscape:current-layer="svg2" />
  <defs
     id="defs4">
    <clipPath
       id="clipoutline2"
       clipPathUnits="userSpaceOnUse">
      <path
         d="M 55.8,12 L 56.56,12.16 C 65.4,9.22 85.24,20.8 80.82,31.12 C 79.7,32.74 79.89,35.62 81.24,37.43 L 56.43,62.25 C 55.04,60.86 51.95,60.89 50.53,62.25 L 9.5,101.63 C 5.76,105.22 8.7,108.27 10.28,109.88 L 17.64,117.24 C 19.25,118.84 23.5,121 26.52,117.8 L 65.24,76.99 C 66.59,75.57 66.6,72.52 65.24,71.12 C 65.24,71.12 65.25,71.1 65.24,71.1 L 90.15,46.2 C 92.78,48.57 95.263827,48.774854 97.62,48.13 C 102.17057,46.884568 104.70725,51.336643 107.43,54.59 L 106.2,55.8 C 104.38,57.64 104.55,60.74 106.59,62.78 C 108.63,64.82 111.74,64.99 113.56,63.17 L 121.7,55.04 C 123.52,53.2 123.35,50.1 121.3,48.07 C 119.46,46.22 116.79,45.98 114.93,47.3 C 109.35,41.04 112.28,40.1 104.92,31.95 L 91.13,17.86 C 81.2,8.12 68.3,8.13 55.8,12 z"
         id="outline2" />
    </clipPath>
    <clipPath
       id="clipoutline1"
       clipPathUnits="userSpaceOnUse">
      <path
         d="M 22.42,17.2 L 35.38,30.15 L 32.88,38.93 L 24.1,41.43 L 11.14,28.47 L 5.28,34.33 L 20.17,55.79 L 37.73,52.45 L 99.36,118.07 C 108.8,127.58 121.53,113.32 112.7,105.2 L 46.85,42.92 L 50.86,25.16 L 28.72,10.89 L 22.42,17.2 z M 103.48,109.17 C 105.16,107.49 107.88,107.49 109.56,109.17 C 111.24,110.85 111.24,113.57 109.56,115.25 C 107.88,116.92 105.16,116.92 103.48,115.25 C 101.8,113.57 101.8,110.85 103.48,109.17 z"
         id="outline1" />
    </clipPath>
    <inkscape:perspective
       sodipodi:type="inkscape:persp3d"
       inkscape:vp_x="0 : 290 : 1"
       inkscape:vp_y="0 : 1000 : 0"
       inkscape:vp_z="580 : 290 : 1"
       inkscape:persp3d-origin="290 : 193.33333 : 1"
       id="perspective12" />
    <style
       type="text/css"
       id="style6">
   
    .fil0 {fill:#EF7900}
   
  </style>
    <inkscape:perspective
       id="perspective6807"
       inkscape:persp3d-origin="29.116032 : 19.410688 : 1"
       inkscape:vp_z="58.232063 : 29.116032 : 1"
       inkscape:vp_y="0 : 1000 : 0"
       inkscape:vp_x="0 : 29.116032 : 1"
       sodipodi:type="inkscape:persp3d" />
    <inkscape:perspective
       id="perspective6954"
       inkscape:persp3d-origin="290 : 193.33333 : 1"
       inkscape:vp_z="580 : 290 : 1"
       inkscape:vp_y="0 : 1000 : 0"
       inkscape:vp_x="0 : 290 : 1"
       sodipodi:type="inkscape:persp3d" />
    <marker
       viewBox="0 0 10 10"
       refY="5"
       refX="10"
       orient="auto"
       markerWidth="4"
       markerUnits="strokeWidth"
       markerHeight="3"
       id="ArrowStart">
      <path
         id="path2295"
         d="M 10 0 L 0 5 L 10 10 z" />
    </marker>
    <marker
       viewBox="0 0 10 10"
       refY="5"
       refX="0"
       orient="auto"
       markerWidth="4"
       markerUnits="strokeWidth"
       markerHeight="3"
       id="ArrowEnd">
      <path
         id="path2292"
         d="M 0 0 L 10 5 L 0 10 z" />
    </marker>
    <inkscape:perspective
       id="perspective7597"
       inkscape:persp3d-origin="178.5405 : 158.483 : 1"
       inkscape:vp_z="357.08099 : 237.7245 : 1"
       inkscape:vp_y="0 : 1000 : 0"
       inkscape:vp_x="0 : 237.7245 : 1"
       sodipodi:type="inkscape:persp3d" />
  </defs>
  <g
     id="g1327">
    <path
       d="M 66.275,1.768 C 24.94,1.768 1.704,23.139 1.704,66.804 L 1.704,516.927 C 1.704,557.771 22.598,579.156 63.896,579.156 L 515.92,579.156 C 557.227,579.156 578.149,558.84 578.149,516.927 L 578.149,66.804 C 578.149,24.203 557.227,1.768 514.627,1.768 C 514.624,1.768 66.133,1.625 66.275,1.768 z"
       style="fill:#111111;stroke:#eeeeee;stroke-width:3.40799999"
       id="path1329" />
  </g>
  <g
     id="g2319"
     transform="translate(879.29125,36.805119)">
    <path
       id="path2323"
       style="fill:#ffffff;stroke:none"
       d="" />
  </g>
  <g
     id="g2325"
     transform="translate(879.29125,36.805119)">
    <path
       id="path2329"
       style="fill:#ffffff;stroke:none"
       d="" />
  </g>
  <g
     transform="translate(166.42563,67.96431)"
     id="g13">
	
</g>
  <g
     id="g6443"
     transform="matrix(1.8557014,0,0,1.8557014,-202.40231,-219.83775)">
    <path
       sodipodi:nodetypes="ccccssccccccscccczzssscccccccccccccccccccccccccccccccccccccccccccccccccccccccccccccccccccccccccccsscccsscccc"
       style="fill:#ffffff;fill-opacity:1;stroke:#ffffff;stroke-opacity:1"
       id="path3"
       d="M 366.80484,182.59267 C 364.56483,182.59867 362.70184,183.20542 361.17984,183.93642 C 358.51784,185.25541 356.61484,186.95142 354.80484,188.68642 C 352.14084,191.28942 349.79159,194.13392 347.77359,196.37392 C 346.77559,197.48692 345.87909,198.45342 345.21109,199.06142 C 344.88108,199.36642 344.60809,199.58242 344.46109,199.68642 C 344.43609,199.70543 344.41459,199.70667 344.39859,199.71767 L 332.11734,204.99892 C 331.68335,204.99192 331.27709,204.99892 330.83609,204.99892 C 314.0571,205.02192 299.04434,209.89067 284.86734,214.34267 C 269.23834,219.29267 254.31134,225.17467 239.24234,228.09267 C 232.32235,229.45267 224.51934,229.82667 216.36734,230.46767 C 208.22033,231.12767 199.68584,232.02767 191.30484,234.96767 C 183.85183,237.58166 177.54059,240.54717 170.77359,244.78017 C 167.80958,246.65218 165.20309,248.90592 162.71109,250.74892 C 160.2881,252.60393 157.95809,253.90467 157.08609,254.09267 L 153.24234,256.65517 C 153.24234,256.65517 149.77993,259.30104 147.98366,260.84118 L 140.75139,267.0422 C 133.48312,273.27409 131.11334,289.03867 131.11734,297.84267 C 131.11734,297.84368 131.11734,297.84992 131.11734,297.87392 C 131.11734,297.89793 131.11734,297.95492 131.11734,297.99892 C 131.18034,311.48993 135.55684,324.24867 142.55484,335.59267 C 149.58484,346.98467 159.24609,357.05217 170.21109,365.53017 C 192.24209,382.42916 219.90559,393.42617 246.02359,393.53017 C 251.1256,393.52817 256.18934,393.10017 261.11734,392.15517 C 265.72533,391.30918 269.72959,389.11342 272.77359,386.31142 C 274.68758,384.55342 278.25859,382.57392 279.52359,380.49892 C 281.7386,379.49592 281.85084,378.10242 283.55484,376.31142 C 286.06984,373.70342 287.71634,370.82517 289.61734,367.28017 C 292.75435,361.35216 296.57634,355.02867 299.61734,348.21767 C 303.08535,340.35967 304.33259,332.07042 305.52359,324.31142 C 306.67558,316.55341 307.75784,309.29342 309.92984,303.68642 C 312.14284,297.88343 315.98759,293.00042 320.77359,287.81142 C 325.52158,282.62742 331.16634,277.26567 335.99234,270.34267 C 339.74933,264.88866 344.18384,260.06392 348.05484,253.99892 C 351.46083,248.70392 354.22684,242.19367 354.80484,234.34267 L 364.49234,229.24892 L 365.30484,228.40517 C 366.35283,227.36916 367.19759,226.92392 368.52359,226.49892 C 370.48359,225.85993 373.57759,225.73717 377.52359,225.40517 C 381.37559,225.04417 386.53884,224.24592 391.17984,220.49892 C 393.09383,218.94192 394.71309,217.28417 395.96109,215.28017 C 397.20309,213.30116 398.03359,210.86067 398.02359,208.34267 C 398.0306,206.28967 397.46859,204.30367 396.64859,202.71767 C 395.18358,199.91867 393.18709,198.16592 391.21109,196.74892 C 388.21509,194.65492 385.00734,193.29967 381.99234,192.21767 C 380.67934,191.75467 379.39809,191.34092 378.21109,190.99892 C 377.55008,189.53192 376.76909,188.19017 375.71109,186.90517 C 374.7021,185.70117 373.40809,184.57117 371.83609,183.78017 C 370.27309,182.98017 368.44984,182.58167 366.80484,182.59267 z M 366.52359,190.09267 C 368.88965,189.93172 371.00231,191.83152 372.52359,197.28017 C 379.68359,198.89017 398.83708,204.63717 386.46109,214.65517 C 378.84509,220.82117 367.83309,215.16416 359.96109,223.15517 L 347.39859,229.74892 C 347.39159,229.50992 347.37933,229.27318 347.36734,229.03017 C 344.19134,230.18317 340.9306,231.57842 337.64859,232.18642 C 337.17659,228.84642 336.43583,225.59616 335.55484,222.40517 C 333.11284,223.37217 330.1391,224.22017 327.71109,224.65517 C 328.63909,220.13317 329.67334,216.67067 331.99234,213.21767 L 347.52359,206.56142 C 352.61018,204.35054 360.47699,190.50398 366.52359,190.09267 z M 168.80484,261.43642 C 169.37605,261.41885 169.95046,261.43667 170.52359,261.43642 C 184.18759,261.46341 198.45009,266.13492 209.33609,270.24892 C 218.1811,273.61093 225.48959,276.72642 232.14859,281.06142 C 238.80958,285.38843 244.70634,290.93142 250.74234,298.81142 C 260.19735,311.16543 270.03359,326.59967 274.02359,342.71767 C 274.9826,346.63267 275.61534,351.58817 275.61734,356.78017 C 275.60434,362.50817 274.86709,368.51392 272.58609,373.74892 C 270.37808,378.93492 266.09909,383.59217 259.71109,384.78017 C 255.2961,385.62716 250.71684,386.02817 246.05484,386.03017 C 222.08785,385.99016 195.59559,375.61867 174.77359,359.59267 C 154.02959,343.56168 138.68634,321.68192 138.61734,297.87392 C 138.61533,290.14691 140.28459,282.26742 143.89859,274.56142 L 150.17984,267.56142 L 157.11734,263.31142 C 160.8851,262.13017 164.80635,261.55938 168.80484,261.43642 z M 185.55484,296.81142 C 190.19984,296.84442 195.09259,297.89267 198.77359,300.96767 C 200.18359,302.18267 201.88384,304.05992 203.42984,306.37392 C 204.93284,308.69792 206.34659,311.38092 206.39859,314.62392 C 206.40258,315.94893 206.12134,317.40467 205.36734,318.71767 C 204.35134,320.50468 202.68984,321.71367 201.05484,322.34267 C 199.40783,322.98866 197.75259,323.18242 196.14859,323.18642 C 191.78858,323.16441 187.54359,321.75842 185.39859,321.06142 L 185.11734,320.96767 L 175.71109,315.84267 L 175.33609,315.62392 L 174.99234,315.34267 C 172.15834,312.68167 170.40634,309.88642 170.36734,306.68642 C 170.35434,304.83842 171.07034,303.07017 172.11734,301.78017 C 173.16635,300.47517 174.47659,299.55467 175.89859,298.84267 C 178.74959,297.43666 182.10084,296.82342 185.55484,296.81142 z M 185.55484,303.81142 C 183.64084,303.80643 181.79109,304.11067 180.33609,304.59267 C 178.8701,305.06167 177.88409,305.74417 177.58609,306.15517 C 177.37809,306.44018 177.38034,306.50542 177.36734,306.68642 C 177.33035,306.93342 177.60709,308.09317 179.46109,309.90517 L 187.92984,314.53017 C 189.90384,315.18617 193.48559,316.20942 196.14859,316.18642 C 197.16258,316.19241 198.00334,316.04267 198.49234,315.84267 C 198.99535,315.62567 199.11559,315.46967 199.27359,315.21767 C 199.34159,315.09168 199.39459,314.96092 199.39859,314.62392 C 199.4506,313.81193 198.77334,311.93392 197.61734,310.24892 C 196.50434,308.55592 195.00009,306.97142 194.21109,306.31142 C 192.54708,304.82043 189.02084,303.77642 185.55484,303.81142 z" />
    <path
       id="path6439"
       d="M 144.94595,333.42528 L 168.60379,360.08201 L 198.92582,378.0753 L 231.58031,387.73836 L 259.56987,389.40441 L 270.56577,382.74023 L 277.89637,370.41149 L 283.22772,330.4264 L 254.90494,277.44616 L 208.58888,258.12003 L 169.93663,254.12152 L 151.94334,260.7857 L 139.28139,272.78123 L 134.61647,292.10736 L 137.28214,315.7652 L 144.94595,333.42528 z"
       style="opacity:0.1;fill:#ffffff;fill-opacity:1;fill-rule:evenodd;stroke:none;stroke-width:1px;stroke-linecap:butt;stroke-linejoin:miter;stroke-opacity:1" />
    <path
       id="path6441"
       d="M 323.21281,212.13718 L 345.53781,202.47411 L 364.53073,186.14687 L 374.86021,191.14501 L 390.85425,201.8077 L 393.51992,211.47076 L 384.52328,219.46778 L 366.52999,222.46666 L 341.53931,239.12711 L 313.54974,235.46181 L 323.21281,212.13718 z"
       style="opacity:0.1;fill:#ffffff;fill-opacity:1;fill-rule:evenodd;stroke:none;stroke-width:1px;stroke-linecap:butt;stroke-linejoin:miter;stroke-opacity:1" />
  </g>
</svg>

<svg xmlns="http://www.w3.org/2000/svg" viewBox="0 0 580 580"><defs><clipPath><path d="m55.8 12l.76.16c8.84-2.94 28.68 8.64 24.26 18.96-1.12 1.62-.93 4.5.42 6.31l-24.81 24.82c-1.39-1.39-4.48-1.36-5.9 0l-41.03 39.38c-3.74 3.59-.8 6.64.78 8.25l7.36 7.36c1.61 1.6 5.86 3.76 8.88.56l38.72-40.81c1.35-1.42 1.36-4.47 0-5.87 0 0 .001-.02 0-.02l24.91-24.9c2.63 2.37 5.114 2.575 7.47 1.93 4.551-1.245 7.087 3.207 9.81 6.46l-1.23 1.21c-1.82 1.84-1.65 4.94.39 6.98 2.04 2.04 5.15 2.21 6.97.39l8.14-8.13c1.82-1.84 1.65-4.94-.4-6.97-1.84-1.85-4.51-2.09-6.37-.77-5.58-6.26-2.65-7.2-10.01-15.35l-13.79-14.09c-9.93-9.74-22.83-9.73-35.33-5.86"/></clipPath><clipPath><path d="m22.42 17.2l12.96 12.95-2.5 8.78-8.78 2.5-12.96-12.96-5.86 5.86 14.89 21.46 17.56-3.34 61.63 65.62c9.44 9.51 22.17-4.75 13.34-12.87l-65.85-62.28 4.01-17.76-22.14-14.27-6.3 6.31m81.06 91.97c1.68-1.68 4.4-1.68 6.08 0 1.68 1.68 1.68 4.4 0 6.08-1.68 1.67-4.4 1.67-6.08 0-1.68-1.68-1.68-4.4 0-6.08"/></clipPath></defs><path d="m66.28 1.768c-41.34 0-64.57 21.371-64.57 65.04v450.12c0 40.844 20.894 62.23 62.19 62.23h452.02c41.31 0 62.23-20.316 62.23-62.23v-450.12c0-42.601-20.922-65.04-63.52-65.04-.003 0-448.49-.143-448.35 0z" fill="#111" stroke="#eee" stroke-width="3.408"/><g transform="matrix(1.8557 0 0 1.8557-202.4-219.84)" fill="#fff"><path d="m366.8 182.59c-2.24.006-4.103.613-5.625 1.344-2.662 1.319-4.565 3.02-6.375 4.75-2.664 2.603-5.01 5.447-7.03 7.688-.998 1.113-1.894 2.079-2.563 2.688-.33.305-.603.521-.75.625-.025.019-.047.02-.063.031l-12.281 5.281c-.434-.007-.84 0-1.281 0-16.779.023-31.792 4.892-45.969 9.344-15.629 4.95-30.556 10.832-45.625 13.75-6.92 1.36-14.723 1.734-22.875 2.375-8.147.66-16.681 1.56-25.06 4.5-7.453 2.614-13.764 5.579-20.531 9.813-2.964 1.872-5.571 4.126-8.06 5.969-2.423 1.855-4.753 3.156-5.625 3.344l-3.844 2.563c0 0-3.462 2.646-5.259 4.186l-7.232 6.201c-7.268 6.232-9.638 21.996-9.634 30.8 0 .0001 0 .007 0 .031 0 .024 0 .081 0 .125.063 13.491 4.439 26.25 11.438 37.594 7.03 11.392 16.691 21.459 27.656 29.938 22.03 16.899 49.694 27.896 75.81 28 5.102-.002 10.166-.43 15.09-1.375 4.608-.846 8.612-3.042 11.656-5.844 1.914-1.758 5.485-3.738 6.75-5.813 2.215-1 2.327-2.397 4.03-4.188 2.515-2.608 4.161-5.486 6.06-9.03 3.137-5.928 6.959-12.252 10-19.06 3.468-7.858 4.715-16.15 5.906-23.906 1.152-7.758 2.234-15.02 4.406-20.625 2.213-5.803 6.06-10.686 10.844-15.875 4.748-5.184 10.393-10.546 15.219-17.469 3.757-5.454 8.191-10.279 12.06-16.344 3.406-5.295 6.172-11.805 6.75-19.656l9.688-5.094.813-.844c1.048-1.036 1.893-1.481 3.219-1.906 1.96-.639 5.05-.762 9-1.094 3.852-.361 9.02-1.159 13.656-4.906 1.914-1.557 3.533-3.215 4.781-5.219 1.242-1.979 2.072-4.419 2.063-6.938.007-2.053-.555-4.04-1.375-5.625-1.465-2.799-3.462-4.552-5.438-5.969-2.996-2.094-6.204-3.449-9.219-4.531-1.313-.463-2.594-.877-3.781-1.219-.661-1.467-1.442-2.809-2.5-4.094-1.01-1.204-2.303-2.334-3.875-3.125-1.563-.8-3.386-1.198-5.03-1.188zm-.281 7.5c2.366-.161 4.479 1.739 6 7.188 7.16 1.61 26.313 7.357 13.938 17.375-7.616 6.166-18.628.509-26.5 8.5l-12.563 6.594c-.007-.239-.019-.476-.031-.719-3.176 1.153-6.437 2.548-9.719 3.156-.472-3.34-1.213-6.59-2.094-9.781-2.442.967-5.416 1.815-7.844 2.25.928-4.522 1.962-7.984 4.281-11.438l15.531-6.656c5.087-2.211 12.953-16.06 19-16.469zm-197.72 71.34c.571-.018 1.146 0 1.719 0 13.664.027 27.926 4.699 38.813 8.813 8.845 3.362 16.15 6.478 22.813 10.813 6.661 4.327 12.558 9.87 18.594 17.75 9.455 12.354 19.291 27.788 23.281 43.906.959 3.915 1.592 8.87 1.594 14.06-.013 5.728-.75 11.734-3.03 16.969-2.208 5.186-6.487 9.843-12.875 11.03-4.415.847-8.994 1.248-13.656 1.25-23.967-.04-50.46-10.411-71.28-26.438-20.744-16.03-36.09-37.911-36.16-61.719-.002-7.727 1.667-15.606 5.281-23.313l6.281-7 6.938-4.25c3.768-1.181 7.689-1.752 11.688-1.875zm16.75 35.37c4.645.033 9.538 1.081 13.219 4.156 1.41 1.215 3.11 3.092 4.656 5.406 1.503 2.324 2.917 5.01 2.969 8.25.004 1.325-.277 2.781-1.031 4.094-1.016 1.787-2.678 2.996-4.313 3.625-1.647.646-3.302.84-4.906.844-4.36-.022-8.605-1.428-10.75-2.125l-.281-.094-9.406-5.125-.375-.219-.344-.281c-2.834-2.661-4.586-5.456-4.625-8.656-.013-1.848.703-3.616 1.75-4.906 1.049-1.305 2.359-2.226 3.781-2.938 2.851-1.406 6.202-2.02 9.656-2.031zm0 7c-1.914-.005-3.764.299-5.219.781-1.466.469-2.452 1.151-2.75 1.563-.208.285-.206.35-.219.531-.037.247.24 1.407 2.094 3.219l8.469 4.625c1.974.656 5.556 1.679 8.219 1.656 1.014.006 1.855-.144 2.344-.344.503-.217.623-.373.781-.625.068-.126.121-.257.125-.594.052-.812-.625-2.69-1.781-4.375-1.113-1.693-2.617-3.277-3.406-3.938-1.664-1.491-5.19-2.535-8.656-2.5z" stroke="#fff"/><g fill-rule="evenodd"><path d="m144.95 333.43l23.658 26.657 30.32 17.993 32.654 9.663 27.99 1.666 10.996-6.664 7.331-12.329 5.331-39.985-28.323-52.98-46.32-19.326-38.652-3.999-17.993 6.664-12.662 11.996-4.665 19.326 2.666 23.658 7.664 17.66" opacity=".1"/><path d="m323.21 212.14l22.325-9.663 18.993-16.327 10.329 4.998 15.994 10.663 2.666 9.663-8.997 7.997-17.993 2.999-24.991 16.66-27.99-3.665 9.663-23.325" opacity=".1"/></g></g></svg>
